assets/build/img/option-info.svg

<svg width="24" height="24" viewBox="0 0 24 24" fill="none" xmlns="http://www.w3.org/2000/svg">
	<circle cx="12" cy="12" r="12" fill="#1D1D1D"/>
	<path d="M7.33334 8.95138H9.96532C10.0236 7.88319 10.7617 7.19311 11.8786 7.19311C12.9858 7.19311 13.7239 7.84537 13.7239 8.74342C13.7239 9.64146 13.3451 10.1047 12.0923 10.8325C10.752 11.5982 10.2178 12.449 10.3441 13.9332L10.3635 14.4814H12.9372V13.9804C12.9372 13.054 13.2966 12.5908 14.5883 11.8629C15.9577 11.0783 16.6667 10.0858 16.6667 8.65834C16.6667 6.50304 14.8311 5 12.0534 5C9.07181 5 7.3819 6.62593 7.33334 8.95138ZM11.6844 19C12.5682 19 13.2772 18.3477 13.2772 17.5159C13.2772 16.684 12.5682 16.0317 11.6844 16.0317C10.8103 16.0317 10.1013 16.684 10.1013 17.5159C10.1013 18.3477 10.8103 19 11.6844 19Z" fill="white"/>
</svg>

<svg width="24" height="24" fill="none" xmlns="http://www.w3.org/2000/svg"><circle cx="12" cy="12" r="12" fill="#1D1D1D"/><path d="M7.333 8.951h2.632c.059-1.068.797-1.758 1.914-1.758 1.107 0 1.845.652 1.845 1.55s-.379 1.362-1.632 2.09c-1.34.765-1.874 1.616-1.748 3.1l.02.548h2.573v-.5c0-.927.36-1.39 1.651-2.118 1.37-.785 2.079-1.777 2.079-3.205C16.667 6.503 14.83 5 12.053 5c-2.981 0-4.671 1.626-4.72 3.951zM11.684 19c.884 0 1.593-.652 1.593-1.484s-.709-1.484-1.593-1.484c-.874 0-1.583.652-1.583 1.484S10.811 19 11.684 19z" fill="#fff"/></svg>
